X: 3110
Q:"Reel."
M: C
L: 1/8
K: A
|:\
e2(ae) fecd | e2(ae) f2e2 |
e2(ae) fecA | EFAc   B2A2 |\
e2(ae) fecd | e2(ae) f2e2 |\
aefd   ecBA | EFAc   B2A2 |]


